X: 1959
T: Wait Till The Sun Shines Nellie
C:Harry Von Tilzer, (1872 - 1916), pub 1905
B: australian traditional tunes wiki
M:2/4
L:1/8
R: Foxtrot
Q: 1/4=100
K:G
V:1 
B,C^C||"G"DD/D/ DD|"G"BB/B/ BA|"C"G2E2|"G"DG3|"D7"zA AG|"D7"A2B2|"G"GE3|"G"D^C D_E|
"C"E2-E2|"D7"F2E2|"G"D2E2|"G"FG3|"A7"zB BB|"A7"AG EG|"D7"zB BB|"D7"AG E_E||
|"G"DD/D/ DD|"G"BB/B/ BA|"C"G2E2|"G"DG3|"D7"A3G|"D7"A2_B2|"B7"BB/B/ BB|"B7"BG EG|
"E+7"cc/c/ cc|"E7"BB/B/ BE|"A7"B2A2|"A7"^DE3|"D7"BB/B/ BB|"D7"B_B AG-|"G"GG/G/ GG|"G"G2-G2||
% abcbook-tune_id 6342d5be0651d4d99d98b763


% abcbook-boost 0
% abcbook-tablature 
% abcbook-transpose 
% abcbook-lastupdated 1665324490433
% abcbook-soundfonts 
% abcbook-repeats 1
% NFF Book 2016

